assets/svg/ficon/arrow-circle-o-up.svg

<?xml version="1.0" encoding="utf-8"?>
<svg width="1792" height="1792" viewBox="0 0 1792 1792" xmlns="http://www.w3.org/2000/svg"><path d="M1246 876q-8 20-30 20h-192v352q0 14-9 23t-23 9h-192q-14 0-23-9t-9-23v-352h-192q-14 0-23-9t-9-23q0-12 10-24l319-319q11-9 23-9t23 9l320 320q15 16 7 35zm-350-524q-148 0-273 73t-198 198-73 273 73 273 198 198 273 73 273-73 198-198 73-273-73-273-198-198-273-73zm768 544q0 209-103 385.5t-279.5 279.5-385.5 103-385.5-103-279.5-279.5-103-385.5 103-385.5 279.5-279.5 385.5-103 385.5 103 279.5 279.5 103 385.5z" fill="#60be86"/></svg>

<svg width="1792" height="1792" xmlns="http://www.w3.org/2000/svg"><path d="M1246 876q-8 20-30 20h-192v352q0 14-9 23t-23 9H800q-14 0-23-9t-9-23V896H576q-14 0-23-9t-9-23q0-12 10-24l319-319q11-9 23-9t23 9l320 320q15 16 7 35zM896 352q-148 0-273 73T425 623t-73 273 73 273 198 198 273 73 273-73 198-198 73-273-73-273-198-198-273-73zm768 544q0 209-103 385.5T1281.5 1561 896 1664t-385.5-103T231 1281.5 128 896t103-385.5T510.5 231 896 128t385.5 103T1561 510.5 1664 896z" fill="#60be86"/></svg>
